public/svg/team2.svg

<svg width="81" height="80" viewBox="0 0 81 80" fill="none" xmlns="http://www.w3.org/2000/svg">
<rect x="0.5" width="80" height="80" rx="40" fill="#F4F7FF"/>
<path opacity="0.3" fill-rule="evenodd" clip-rule="evenodd" d="M28.833 31.6667C28.833 35.3486 31.8178 38.3333 35.4997 38.3333C39.1816 38.3333 42.1663 35.3486 42.1663 31.6667C42.1663 27.9848 39.1816 25 35.4997 25C31.8178 25 28.833 27.9848 28.833 31.6667ZM45.4997 38.3333C45.4997 41.0948 47.7383 43.3333 50.4997 43.3333C53.2611 43.3333 55.4997 41.0948 55.4997 38.3333C55.4997 35.5719 53.2611 33.3333 50.4997 33.3333C47.7383 33.3333 45.4997 35.5719 45.4997 38.3333Z" fill="#1B5BF7"/>
<path fill-rule="evenodd" clip-rule="evenodd" d="M35.4722 41.667C27.6032 41.667 21.1471 45.7112 20.5011 53.6657C20.4659 54.099 21.2945 55.0003 21.7125 55.0003H49.2445C50.4965 55.0003 50.516 53.9928 50.4965 53.667C50.0081 45.489 43.452 41.667 35.4722 41.667ZM59.5933 55.0003L53.1671 55.0003C53.1671 51.2488 51.9276 47.7867 49.8357 45.0014C55.5131 45.0635 60.1486 47.934 60.4975 54.0003C60.5115 54.2447 60.4975 55.0003 59.5933 55.0003Z" fill="#1B5BF7"/>
</svg>

<svg xmlns="http://www.w3.org/2000/svg" width="81" height="80" fill="none" xmlns:v="https://vecta.io/nano"><rect x=".5" width="80" height="80" rx="40" fill="#f4f7ff"/><g fill-rule="evenodd" fill="#1b5bf7"><path opacity=".3" d="M28.833 31.667a6.67 6.67 0 0 0 6.667 6.667 6.67 6.67 0 0 0 6.667-6.667A6.67 6.67 0 0 0 35.5 25a6.67 6.67 0 0 0-6.667 6.667zM45.5 38.333a5 5 0 1 0 10 0 5 5 0 1 0-10 0z"/><path d="M35.472 41.667c-7.869 0-14.325 4.044-14.971 11.999-.035.433.793 1.335 1.211 1.335h27.532c1.252 0 1.271-1.008 1.252-1.333-.488-8.178-7.044-12-15.024-12zM59.593 55h-6.426a16.59 16.59 0 0 0-3.331-9.999c5.677.062 10.313 2.933 10.662 8.999.014.244 0 1-.904 1z"/></g></svg>
